X:1
T:Title
%%score { ( 1 3 4 ) | ( 2 5 6 ) }
L:1/8
M:4/4
K:F
V:1 bass nm="Grand Piano"
V:3 bass 
V:4 bass 
V:2 bass 
V:5 bass 
V:6 bass 
V:1
 z8[Q:1/4=108] | [A,D]2 [F,A,D]2 [F,A,D]4 | [B,D]2 [G,B,D]2[K:treble] [G,B,D]4 | B4 z G3 | %4
 A4 z .F3[K:bass] | [A,D]2 [F,A,D]2 [F,A,D]4 | [CE]2 [G,CE]2 [G,CE]4 | c4 z4 | %8
[M:7/8] z c-c- c3[K:bass] z |[M:1/8][K:treble] c |[M:4/4] z4 d4 | z4 d4 | e4 z d3 | d4 z .c3 | %14
 z4 d4 | z4 d4 | f4 z4 |[M:7/8] z F-F- F3[K:bass] z |] %18
V:2
 z4 z2 z C | F,,2 C,2 C,3 C | G,,2 C,2 C,4 | C,,2 [C,E,]2 C,,2 [C,E,]2 | %4
 F,,2 [C,F,]2 F,,2 [C,F,]2 | F,,2 C,2 C,3 C | G,,2 C,2 C,4 | G,,2 [E,G,]2 G,,2 [F,G,=B,]2 | %8
[M:7/8] z[K:treble] [EG]-[EG]- [EG]3[K:bass] z |[M:1/8] z | %10
[M:4/4] [F,,F,]2 [C,,C,]2 [F,,F,]2 [C,,C,]2 | [G,,G,]2 [C,,C,]2 [G,,G,]2 [C,,C,]2 | %12
 [G,,G,]2 [C,,C,]2 [G,,G,]2 [C,,C,]2 | [F,,F,]2 [C,,C,]2 [F,,F,]2 [C,,C,]2 | %14
 [F,,F,]2 [C,,C,]2 [F,,F,]2 [C,,C,]2 | [A,,A,]2 [D,,D,]2 [G,,G,]2 [B,,B,]2 | %16
 [C,C]2 z[K:treble] d[K:bass] C,2 [C,C]2 |[M:7/8] z [A,C]-[A,C]- [A,C]3 z |] %18
V:3
 x8 | x8 | x4[K:treble] x4 | z2 z E .A2 B,2 | z2 z C .G2[K:bass] z C | x8 | x8 | z2 z G =B2 G2 | %8
[M:7/8] [FGd] z G,2[K:bass] C,2 z |[M:1/8][K:treble] x |[M:4/4] [FAd]2 [FAd]2 [FA]2 z c | %11
 [EBd]2 [EBd]2 [EB]2 [EB]2 | [EB]2 z d z2 [EB]2 | [FA]2 z c .A2 z c | [FAd]2 [FAd]2 [FA]2 z c | %15
 [^FAcd]2 [FAcd]2 [GB]2 [GB]2 | [FAc]2 [FB]2 [CFAc]2 [FA]2 |[M:7/8] [B,EG] z F,2[K:bass] F,,2 z |] %18
V:4
 x8 | x8 | x4[K:treble] x4 | z2 B,2 z4 | z2 A,2 z2[K:bass] A,2 | x8 | x8 | z2 C2 z4 | %8
[M:7/8] x4[K:bass] x3 |[M:1/8][K:treble] x |[M:4/4] z4 z2 [FA]2 | x8 | z2 [EB]2 [EB]2 z2 | %13
 z2 [FA]2 F2 [FA]2 | z4 z2 [FA]2 | x8 | x8 |[M:7/8] x4[K:bass] x3 |] %18
V:5
 x8 | x8 | x8 | x8 | x8 | x8 | x8 | x8 |[M:7/8] [C,C]2[K:treble] z z[K:bass] z z2 |[M:1/8] x | %10
[M:4/4] x8 | x8 | x8 | x8 | x8 | x8 | z2 [C,C]2[K:treble][K:bass] z4 |[M:7/8] [C,,C,]2 z z z z2 |] %18
V:6
 x8 | x8 | x8 | x8 | x8 | x8 | x8 | x8 |[M:7/8] z2[K:treble] G,,2[K:bass] C,,2 z |[M:1/8] x | %10
[M:4/4] x8 | x8 | x8 | x8 | x8 | x8 | x3[K:treble] x[K:bass] x4 |[M:7/8] z2 F,,2 F,,,2 z |] %18

